X:1
T:Once in Royal David's City
T:Once in Royal David's City
%%score ( 1 2 ) ( 3 4 )
L:1/8
M:4/4
K:F
V:1 treble nm="Piano" snm="Pno."
V:2 treble 
V:3 bass nm="Piano" snm="Pno."
V:4 bass 
V:1
 C2 [B,E]2 | [CF]3 [CF] FE [CF][EG] | [EG]2 F2 [CF]2 [FA]2 | [Fc]3 [FA] AG FE | [CF]4 C2 [B,E]2 | %5
w: 1~Once in|ro- yal Da- * vid's _|ci- ty stood a|low- ly cat- * tle _|shed, where a|
w: 2~He came|down to earth _ from _|hea- ven who is|God and Lord _ of _|all, and his|
w: 3~Je- sus|is our chil- * dhood's _|pat- tern, day by|day like us _ he _|grew; he was|
w: 4~And our|eyes at last _ shall _|see him, through his|own re- deem- * ing _|love; for that|
 [CF]3 [CF] FE FG | G2 [A,F]2 [CF]2 [FA]2 | [Fc]3 [FA] AG FE | [CF]4 [Fd]2 [Fd]2 | %9
w: mo- ther laid _ her _|ba- by in a|man- ger for _ his _|bed: Ma- ry|
w: shel- ter was _ a _|sta- ble, and his|cra- dle was _ a _|stall: with the|
w: lit- tle, weak, _ and _|help- less, tears and|smiles like us _ he _|knew: and he|
w: child, so dear _ and _|gen- tle, is our|Lord in heaven _ a- *|bove: and he|
 c3 F [FB]2 [EB]2 | [FA]2- [FA]2 d2 d2 | c3 [FA] AG FE | [CF]2- [CF]2 |] %13
w: was that mo- ther|mild, ly Je- sus|Christ her lit- * tle _|child. ly.|
w: poor and meek and|low- ness, lived on|earth, our Sa- * vior _|ho- ness.|
w: feels for all our|sad- * and he|shares in all _ our _|glad- *|
w: leads his chil- dren|on _ to the|place where he _ has _|gone. *|
V:2
 C2 x2 | x4 C2 x2 | x2 F2 x4 | x4 D2 C2 | x4 C2 x2 | x4 =B,2 B,2 | C_B, x6 | x4 D2 C2 | x8 | %9
 FEFF x4 | x4 DE FG | CEF x D2 C2 | x4 |] %13
V:3
 [F,,A,]2 [G,,G,]2 | [A,,F,]3 [F,,A,] A,G, A,B, | [C,B,]2 [F,A,]2 [F,A,]2 [D,F,]2 | %3
 [A,,F,]3 [F,,C] CB, A,G, | [F,A,]4 [F,,A,]2 [G,,G,]2 | [A,,F,]3 [F,,A,] [D,F,]2 [G,,F,]2 | %6
 [C,E,]2 F,2 [F,A,]2 [D,F,]2 | [A,,F,]3 [F,,C] CB, A,G, | [F,A,]4 B,2 B,2 | %9
 [F,A,][G,B,][A,C][F,A,] [C,G,]2 [C,C]2 | [F,C]2- [F,C]2 B,2 B,2 | B,G,A,[F,C] CB, A,G, | %12
 [F,,A,]2- [F,,A,]2 |] %13
V:4
 x4 | x4 C,2 C,2 | x8 | x4 B,,2 C,2 | x8 | x8 | x2 F,2 x4 | x4 B,,2 C,2 | x4 B,,C, D,E, | x8 | %10
 x4 B,,C, D,E, | F,3 x B,,2 C,2 | x4 |] %13

